static/image/Memento-nested-classes.svg

<svg height="298px" version="1.1" viewBox="-0.5 -0.5 783 298" width="783px" xmlns="http://www.w3.org/2000/svg" xmlns:xlink="http://www.w3.org/1999/xlink"><defs/><path d="M 581 221 L 771 221 L 781 231 L 781 296 L 581 296 L 581 221 Z" class="fill-stroke" stroke-miterlimit="10"/><path d="M 771 221 L 771 231 L 781 231 Z" fill="none" fill-opacity="0.05" stroke="none"/><path d="M 771 221 L 771 231 L 781 231" class="none-stroke" stroke-miterlimit="10"/><foreignObject class="leftdiv" ><div class="flexstart flexzero" style="width:198px;padding-top:259px;margin-left:583px" xmlns="http://www.w3.org/1999/xhtml"><div class="leftdiv"><div class="normaldiv">m = originator.save()<br/>history.push(m)<br/>// originator.change()</div></div></div></foreignObject><path d="M 461 221 L 461 191 L 663 191 L 663 161" class="none-stroke" stroke-dasharray="6 6" stroke-miterlimit="10" stroke-width="2"/><path d="M 361 221 L 551 221 L 561 231 L 561 281 L 361 281 L 361 221 Z" class="fill-stroke" stroke-miterlimit="10"/><path d="M 551 221 L 551 231 L 561 231 Z" fill="none" fill-opacity="0.05" stroke="none"/><path d="M 551 221 L 551 231 L 561 231" class="none-stroke" stroke-miterlimit="10"/><foreignObject class="leftdiv" ><div class="flexstart flexzero" style="width:198px;padding-top:251px;margin-left:363px" xmlns="http://www.w3.org/1999/xhtml"><div class="leftdiv"><div class="normaldiv">m = history.pop()<br/>originator.restore(m)</div></div></div></foreignObject><rect height="30" class="none-stroke" width="200" x="21" y="21"/><foreignObject class="leftdiv" ><div class="flexcenter flexzero" style="width:198px;padding-top:36px;margin-left:22px" xmlns="http://www.w3.org/1999/xhtml"><div class="centerdiv"><div class="normaldiv">Originator<br/></div></div></div></foreignObject><path d="M 221 66 L 296.53 66" class="none-stroke" stroke-dasharray="6 6" stroke-miterlimit="10" stroke-width="2"/><path d="M 286.76 72 L 298.76 66 L 286.76 60" class="none-stroke" stroke-miterlimit="10" stroke-width="2"/><rect height="30" class="none-stroke" width="200" x="21" y="51"/><foreignObject class="leftdiv" ><div class="flexstart flexzero" style="width:198px;padding-top:66px;margin-left:23px" xmlns="http://www.w3.org/1999/xhtml"><div class="leftdiv"><div class="normaldiv"><div style="">- state</div></div></div></div></foreignObject><rect height="30" class="none-stroke" width="200" x="301" y="21"/><foreignObject class="leftdiv" ><div class="flexcenter flexzero" style="width:198px;padding-top:36px;margin-left:302px" xmlns="http://www.w3.org/1999/xhtml"><div class="centerdiv"><div class="normaldiv">Memento<br/></div></div></div></foreignObject><rect height="30" class="none-stroke" width="200" x="581" y="21"/><foreignObject class="leftdiv" ><div class="flexcenter flexzero" style="width:198px;padding-top:36px;margin-left:582px" xmlns="http://www.w3.org/1999/xhtml"><div class="centerdiv"><div class="normaldiv">Caretaker<br/></div></div></div></foreignObject><path d="M 505.47 66 L 565.03 66" class="none-stroke" stroke-miterlimit="10" stroke-width="2"/><path d="M 517.24 59 L 503.24 66 L 517.24 73" class="none-stroke" stroke-miterlimit="10" stroke-width="2"/><path d="M 579.03 66 L 572.03 70.12 L 565.03 66 L 572.03 61.88 Z" class="none-stroke" stroke-miterlimit="10" stroke-width="2"/><rect height="30" class="none-stroke" width="200" x="301" y="51"/><foreignObject class="leftdiv" ><div class="flexstart flexzero" style="width:198px;padding-top:66px;margin-left:303px" xmlns="http://www.w3.org/1999/xhtml"><div class="leftdiv"><div class="normaldiv"><div style="">- state</div></div></div></div></foreignObject><rect height="30" class="none-stroke" width="200" x="581" y="81"/><foreignObject class="leftdiv" ><div class="flexstart flexzero" style="width:198px;padding-top:96px;margin-left:583px" xmlns="http://www.w3.org/1999/xhtml"><div class="leftdiv"><div class="normaldiv"><div style="">- history:Memento[]</div></div></div></div></foreignObject><rect height="30" class="none-stroke" width="200" x="581" y="51"/><foreignObject class="leftdiv" ><div class="flexstart flexzero" style="width:198px;padding-top:66px;margin-left:583px" xmlns="http://www.w3.org/1999/xhtml"><div class="leftdiv"><div class="normaldiv"><div style="">- originator</div></div></div></div></foreignObject><rect height="30" class="none-stroke" width="200" x="301" y="81"/><foreignObject class="leftdiv" ><div class="flexstart flexzero" style="width:198px;padding-top:96px;margin-left:303px" xmlns="http://www.w3.org/1999/xhtml"><div class="leftdiv"><div class="normaldiv"><div style="">- Memento(state)</div></div></div></div></foreignObject><rect height="30" class="none-stroke" width="200" x="301" y="111"/><foreignObject class="leftdiv" ><div class="flexstart flexzero" style="width:198px;padding-top:126px;margin-left:303px" xmlns="http://www.w3.org/1999/xhtml"><div class="leftdiv"><div class="normaldiv"><div style="">- getState()</div></div></div></div></foreignObject><rect height="30" class="none-stroke" width="200" x="581" y="141"/><foreignObject class="leftdiv" ><div class="flexstart flexzero" style="width:198px;padding-top:156px;margin-left:583px" xmlns="http://www.w3.org/1999/xhtml"><div class="leftdiv"><div class="normaldiv"><div style="">+ undo()</div></div></div></div></foreignObject><rect height="30" class="none-stroke" width="200" x="581" y="111"/><foreignObject class="leftdiv" ><div class="flexstart flexzero" style="width:198px;padding-top:126px;margin-left:583px" xmlns="http://www.w3.org/1999/xhtml"><div class="leftdiv"><div class="normaldiv"><div style="">+ doSomething()</div></div></div></div></foreignObject><rect height="30" class="none-stroke" width="200" x="21" y="111"/><foreignObject class="leftdiv" ><div class="flexstart flexzero" style="width:198px;padding-top:126px;margin-left:23px" xmlns="http://www.w3.org/1999/xhtml"><div class="leftdiv"><div class="normaldiv"><div style="">+ restore(m:Memento)</div></div></div></div></foreignObject><rect height="30" class="none-stroke" width="200" x="21" y="81"/><foreignObject class="leftdiv" ><div class="flexstart flexzero" style="width:198px;padding-top:96px;margin-left:23px" xmlns="http://www.w3.org/1999/xhtml"><div class="leftdiv"><div class="normaldiv"><div style="">+ save():Memento</div></div></div></div></foreignObject><rect height="160" rx="24" ry="24" fill="none" stroke="#ff907e" stroke-dasharray="6 6" stroke-width="2" width="520" x="1" y="1"/><ellipse cx="663" cy="156" fill="none" rx="5" ry="5" class="none-stroke"/><path d="M 731 126 L 731 191 L 731 215.97" class="none-stroke" stroke-dasharray="6 6" stroke-miterlimit="10" stroke-width="2"/><ellipse cx="726" cy="126" fill="none" rx="5" ry="5" stroke="gray"/></svg>

<?xml version="1.0" encoding="utf-8"?>
<!DOCTYPE svg PUBLIC "-//W3C//DTD SVG 1.1//EN" "http://www.w3.org/Graphics/SVG/1.1/DTD/svg11.dtd">
<svg height="298" viewBox="-0.5 -0.5 783 298" width="783" xmlns="http://www.w3.org/2000/svg" xmlns:xlink="http://www.w3.org/1999/xlink">
 <defs>
  <style>
   @import url(https://fonts.googleapis.com/css?family=Fira+Code);
  </style>
  <style>
   svg {
           color: gray; 
           font-size: 14px; 
           font-family: "Fira Code";
       } 
       .none-stroke {
           fill: none; 
           stroke: gray;
       } 
       .fill-stroke {
           fill: #333; 
           stroke: gray;
       } 
       foreignObject {
           width: 100%; 
           height: 100%;
       } 
       .leftdiv {
           overflow: visible; 
           text-align: left;
       } 
       .centerdiv {
           box-sizing:border-box; 
           text-align:center
       } 
       .normaldiv {
           display:inline-block; 
           line-height:1.2; 
           white-space:normal; 
           overflow-wrap:normal
       } 
       .flexcenter {
           display:flex; 
           align-items:unsafe center; 
           justify-content:unsafe center;
       }
       .flexstart {
           display:flex; 
           align-items:unsafe center; 
           justify-content:unsafe flex-start;
       } 
       .flexzero {height: 1px;}
  </style>
 </defs>
 <path d="M581 221h190l10 10v65H581v-75Z" fill="#333" pointer-events="all" stroke="gray" stroke-miterlimit="10"/>
 <path d="M771 221v10h10Z" fill-opacity=".05" pointer-events="all"/>
 <path d="M771 221v10h10" fill="none" pointer-events="all" stroke="gray" stroke-miterlimit="10"/>
 <foreignObject height="100%" pointer-events="none" requiredFeatures="http://www.w3.org/TR/SVG11/feature#Extensibility" style="overflow:visible;text-align:left" width="100%">
  <div style="display:flex;align-items:unsafe center;justify-content:unsafe flex-start;width:198px;height:1px;padding-top:259px;margin-left:583px" xmlns="http://www.w3.org/1999/xhtml">
   <div data-drawio-colors="color: #808080;" style="box-sizing:border-box;font-size:0;text-align:left">
    <div style='display:inline-block;font-size:15px;font-family:"Fira Code";color:gray;line-height:1.2;pointer-events:all;white-space:normal;overflow-wrap:normal'>
     m = originator.save()
     <br/>
     history.push(m)
     <br/>
     // originator.change()
    </div>
   </div>
  </div>
 </foreignObject>
 <path d="M461 221v-30h202v-30" fill="none" pointer-events="stroke" stroke="gray" stroke-dasharray="6 6" stroke-miterlimit="10" stroke-width="2"/>
 <path d="M361 221h190l10 10v50H361v-60Z" fill="#333" pointer-events="all" stroke="gray" stroke-miterlimit="10"/>
 <path d="M551 221v10h10Z" fill-opacity=".05" pointer-events="all"/>
 <path d="M551 221v10h10" fill="none" pointer-events="all" stroke="gray" stroke-miterlimit="10"/>
 <foreignObject height="100%" pointer-events="none" requiredFeatures="http://www.w3.org/TR/SVG11/feature#Extensibility" style="overflow:visible;text-align:left" width="100%">
  <div style="display:flex;align-items:unsafe center;justify-content:unsafe flex-start;width:198px;height:1px;padding-top:251px;margin-left:363px" xmlns="http://www.w3.org/1999/xhtml">
   <div data-drawio-colors="color: #808080;" style="box-sizing:border-box;font-size:0;text-align:left">
    <div style='display:inline-block;font-size:15px;font-family:"Fira Code";color:gray;line-height:1.2;pointer-events:all;white-space:normal;overflow-wrap:normal'>
     m = history.pop()
     <br/>
     originator.restore(m)
    </div>
   </div>
  </div>
 </foreignObject>
 <path d="M21 21h200v30H21z" fill="none" pointer-events="all" stroke="gray"/>
 <foreignObject height="100%" pointer-events="none" requiredFeatures="http://www.w3.org/TR/SVG11/feature#Extensibility" style="overflow:visible;text-align:left" width="100%">
  <div style="display:flex;align-items:unsafe center;justify-content:unsafe center;width:198px;height:1px;padding-top:36px;margin-left:22px" xmlns="http://www.w3.org/1999/xhtml">
   <div data-drawio-colors="color: rgb(0, 0, 0);" style="box-sizing:border-box;font-size:0;text-align:center">
    <div style="display:inline-block;font-size:12px;font-family:Helvetica;color:#000;line-height:1.2;pointer-events:all;white-space:normal;overflow-wrap:normal">
     <font color="gray" face="Fira Code">
      <span style="font-size:15px">
       Originator
       <br/>
      </span>
     </font>
    </div>
   </div>
  </div>
 </foreignObject>
 <path d="M221 66h75.53" fill="none" pointer-events="stroke" stroke="gray" stroke-dasharray="6 6" stroke-miterlimit="10" stroke-width="2"/>
 <path d="m286.76 72 12-6-12-6" fill="none" pointer-events="all" stroke="gray" stroke-miterlimit="10" stroke-width="2"/>
 <path d="M21 51h200v30H21z" fill="none" pointer-events="all" stroke="gray"/>
 <foreignObject height="100%" pointer-events="none" requiredFeatures="http://www.w3.org/TR/SVG11/feature#Extensibility" style="overflow:visible;text-align:left" width="100%">
  <div style="display:flex;align-items:unsafe center;justify-content:unsafe flex-start;width:198px;height:1px;padding-top:66px;margin-left:23px" xmlns="http://www.w3.org/1999/xhtml">
   <div data-drawio-colors="color: rgb(0, 0, 0);" style="box-sizing:border-box;font-size:0;text-align:left">
    <div style="display:inline-block;font-size:12px;font-family:Helvetica;color:#000;line-height:1.2;pointer-events:all;white-space:normal;overflow-wrap:normal">
     <div>
      <font color="gray" face="Fira Code">
       <span style="font-size:15px">
        - state
       </span>
      </font>
     </div>
    </div>
   </div>
  </div>
 </foreignObject>
 <path d="M301 21h200v30H301z" fill="none" pointer-events="all" stroke="gray"/>
 <foreignObject height="100%" pointer-events="none" requiredFeatures="http://www.w3.org/TR/SVG11/feature#Extensibility" style="overflow:visible;text-align:left" width="100%">
  <div style="display:flex;align-items:unsafe center;justify-content:unsafe center;width:198px;height:1px;padding-top:36px;margin-left:302px" xmlns="http://www.w3.org/1999/xhtml">
   <div data-drawio-colors="color: rgb(0, 0, 0);" style="box-sizing:border-box;font-size:0;text-align:center">
    <div style="display:inline-block;font-size:12px;font-family:Helvetica;color:#000;line-height:1.2;pointer-events:all;white-space:normal;overflow-wrap:normal">
     <font color="gray" face="Fira Code">
      <span style="font-size:15px">
       Memento
       <br/>
      </span>
     </font>
    </div>
   </div>
  </div>
 </foreignObject>
 <path d="M581 21h200v30H581z" fill="none" pointer-events="all" stroke="gray"/>
 <foreignObject height="100%" pointer-events="none" requiredFeatures="http://www.w3.org/TR/SVG11/feature#Extensibility" style="overflow:visible;text-align:left" width="100%">
  <div style="display:flex;align-items:unsafe center;justify-content:unsafe center;width:198px;height:1px;padding-top:36px;margin-left:582px" xmlns="http://www.w3.org/1999/xhtml">
   <div data-drawio-colors="color: rgb(0, 0, 0);" style="box-sizing:border-box;font-size:0;text-align:center">
    <div style="display:inline-block;font-size:12px;font-family:Helvetica;color:#000;line-height:1.2;pointer-events:all;white-space:normal;overflow-wrap:normal">
     <font color="gray" face="Fira Code">
      <span style="font-size:15px">
       Caretaker
       <br/>
      </span>
     </font>
    </div>
   </div>
  </div>
 </foreignObject>
 <path d="M505.47 66h59.56" fill="none" pointer-events="stroke" stroke="gray" stroke-miterlimit="10" stroke-width="2"/>
 <path d="m517.24 59-14 7 14 7M579.03 66l-7 4.12-7-4.12 7-4.12Z" fill="none" pointer-events="all" stroke="gray" stroke-miterlimit="10" stroke-width="2"/>
 <path d="M301 51h200v30H301z" fill="none" pointer-events="all" stroke="gray"/>
 <foreignObject height="100%" pointer-events="none" requiredFeatures="http://www.w3.org/TR/SVG11/feature#Extensibility" style="overflow:visible;text-align:left" width="100%">
  <div style="display:flex;align-items:unsafe center;justify-content:unsafe flex-start;width:198px;height:1px;padding-top:66px;margin-left:303px" xmlns="http://www.w3.org/1999/xhtml">
   <div data-drawio-colors="color: rgb(0, 0, 0);" style="box-sizing:border-box;font-size:0;text-align:left">
    <div style="display:inline-block;font-size:12px;font-family:Helvetica;color:#000;line-height:1.2;pointer-events:all;white-space:normal;overflow-wrap:normal">
     <div>
      <font color="gray" face="Fira Code">
       <span style="font-size:15px">
        - state
       </span>
      </font>
     </div>
    </div>
   </div>
  </div>
 </foreignObject>
 <path d="M581 81h200v30H581z" fill="none" pointer-events="all" stroke="gray"/>
 <foreignObject height="100%" pointer-events="none" requiredFeatures="http://www.w3.org/TR/SVG11/feature#Extensibility" style="overflow:visible;text-align:left" width="100%">
  <div style="display:flex;align-items:unsafe center;justify-content:unsafe flex-start;width:198px;height:1px;padding-top:96px;margin-left:583px" xmlns="http://www.w3.org/1999/xhtml">
   <div data-drawio-colors="color: rgb(0, 0, 0);" style="box-sizing:border-box;font-size:0;text-align:left">
    <div style="display:inline-block;font-size:12px;font-family:Helvetica;color:#000;line-height:1.2;pointer-events:all;white-space:normal;overflow-wrap:normal">
     <div>
      <font color="gray" face="Fira Code">
       <span style="font-size:15px">
        - history: Memento[]
       </span>
      </font>
     </div>
    </div>
   </div>
  </div>
 </foreignObject>
 <path d="M581 51h200v30H581z" fill="none" pointer-events="all" stroke="gray"/>
 <foreignObject height="100%" pointer-events="none" requiredFeatures="http://www.w3.org/TR/SVG11/feature#Extensibility" style="overflow:visible;text-align:left" width="100%">
  <div style="display:flex;align-items:unsafe center;justify-content:unsafe flex-start;width:198px;height:1px;padding-top:66px;margin-left:583px" xmlns="http://www.w3.org/1999/xhtml">
   <div data-drawio-colors="color: rgb(0, 0, 0);" style="box-sizing:border-box;font-size:0;text-align:left">
    <div style="display:inline-block;font-size:12px;font-family:Helvetica;color:#000;line-height:1.2;pointer-events:all;white-space:normal;overflow-wrap:normal">
     <div>
      <font color="gray" face="Fira Code">
       <span style="font-size:15px">
        - originator
       </span>
      </font>
     </div>
    </div>
   </div>
  </div>
 </foreignObject>
 <path d="M301 81h200v30H301z" fill="none" pointer-events="all" stroke="gray"/>
 <foreignObject height="100%" pointer-events="none" requiredFeatures="http://www.w3.org/TR/SVG11/feature#Extensibility" style="overflow:visible;text-align:left" width="100%">
  <div style="display:flex;align-items:unsafe center;justify-content:unsafe flex-start;width:198px;height:1px;padding-top:96px;margin-left:303px" xmlns="http://www.w3.org/1999/xhtml">
   <div data-drawio-colors="color: rgb(0, 0, 0);" style="box-sizing:border-box;font-size:0;text-align:left">
    <div style="display:inline-block;font-size:12px;font-family:Helvetica;color:#000;line-height:1.2;pointer-events:all;white-space:normal;overflow-wrap:normal">
     <div>
      <font color="gray" face="Fira Code">
       <span style="font-size:15px">
        - Memento(state)
       </span>
      </font>
     </div>
    </div>
   </div>
  </div>
 </foreignObject>
 <path d="M301 111h200v30H301z" fill="none" pointer-events="all" stroke="gray"/>
 <foreignObject height="100%" pointer-events="none" requiredFeatures="http://www.w3.org/TR/SVG11/feature#Extensibility" style="overflow:visible;text-align:left" width="100%">
  <div style="display:flex;align-items:unsafe center;justify-content:unsafe flex-start;width:198px;height:1px;padding-top:126px;margin-left:303px" xmlns="http://www.w3.org/1999/xhtml">
   <div data-drawio-colors="color: rgb(0, 0, 0);" style="box-sizing:border-box;font-size:0;text-align:left">
    <div style="display:inline-block;font-size:12px;font-family:Helvetica;color:#000;line-height:1.2;pointer-events:all;white-space:normal;overflow-wrap:normal">
     <div>
      <font color="gray" face="Fira Code">
       <span style="font-size:15px">
        - getState()
       </span>
      </font>
     </div>
    </div>
   </div>
  </div>
 </foreignObject>
 <path d="M581 141h200v30H581z" fill="none" pointer-events="all" stroke="gray"/>
 <foreignObject height="100%" pointer-events="none" requiredFeatures="http://www.w3.org/TR/SVG11/feature#Extensibility" style="overflow:visible;text-align:left" width="100%">
  <div style="display:flex;align-items:unsafe center;justify-content:unsafe flex-start;width:198px;height:1px;padding-top:156px;margin-left:583px" xmlns="http://www.w3.org/1999/xhtml">
   <div data-drawio-colors="color: rgb(0, 0, 0);" style="box-sizing:border-box;font-size:0;text-align:left">
    <div style="display:inline-block;font-size:12px;font-family:Helvetica;color:#000;line-height:1.2;pointer-events:all;white-space:normal;overflow-wrap:normal">
     <div>
      <font color="gray" face="Fira Code">
       <span style="font-size:15px">
        + undo()
       </span>
      </font>
     </div>
    </div>
   </div>
  </div>
 </foreignObject>
 <path d="M581 111h200v30H581z" fill="none" pointer-events="all" stroke="gray"/>
 <foreignObject height="100%" pointer-events="none" requiredFeatures="http://www.w3.org/TR/SVG11/feature#Extensibility" style="overflow:visible;text-align:left" width="100%">
  <div style="display:flex;align-items:unsafe center;justify-content:unsafe flex-start;width:198px;height:1px;padding-top:126px;margin-left:583px" xmlns="http://www.w3.org/1999/xhtml">
   <div data-drawio-colors="color: rgb(0, 0, 0);" style="box-sizing:border-box;font-size:0;text-align:left">
    <div style="display:inline-block;font-size:12px;font-family:Helvetica;color:#000;line-height:1.2;pointer-events:all;white-space:normal;overflow-wrap:normal">
     <div>
      <font color="gray" face="Fira Code">
       <span style="font-size:15px">
        + doSomething()
       </span>
      </font>
     </div>
    </div>
   </div>
  </div>
 </foreignObject>
 <path d="M21 111h200v30H21z" fill="none" pointer-events="all" stroke="gray"/>
 <foreignObject height="100%" pointer-events="none" requiredFeatures="http://www.w3.org/TR/SVG11/feature#Extensibility" style="overflow:visible;text-align:left" width="100%">
  <div style="display:flex;align-items:unsafe center;justify-content:unsafe flex-start;width:198px;height:1px;padding-top:126px;margin-left:23px" xmlns="http://www.w3.org/1999/xhtml">
   <div data-drawio-colors="color: rgb(0, 0, 0);" style="box-sizing:border-box;font-size:0;text-align:left">
    <div style="display:inline-block;font-size:12px;font-family:Helvetica;color:#000;line-height:1.2;pointer-events:all;white-space:normal;overflow-wrap:normal">
     <div>
      <font color="gray" face="Fira Code">
       <span style="font-size:15px">
        + restore(m: Memento)
       </span>
      </font>
     </div>
    </div>
   </div>
  </div>
 </foreignObject>
 <path d="M21 81h200v30H21z" fill="none" pointer-events="all" stroke="gray"/>
 <foreignObject height="100%" pointer-events="none" requiredFeatures="http://www.w3.org/TR/SVG11/feature#Extensibility" style="overflow:visible;text-align:left" width="100%">
  <div style="display:flex;align-items:unsafe center;justify-content:unsafe flex-start;width:198px;height:1px;padding-top:96px;margin-left:23px" xmlns="http://www.w3.org/1999/xhtml">
   <div data-drawio-colors="color: rgb(0, 0, 0);" style="box-sizing:border-box;font-size:0;text-align:left">
    <div style="display:inline-block;font-size:12px;font-family:Helvetica;color:#000;line-height:1.2;pointer-events:all;white-space:normal;overflow-wrap:normal">
     <div>
      <font color="gray" face="Fira Code">
       <span style="font-size:15px">
        + save(): Memento
       </span>
      </font>
     </div>
    </div>
   </div>
  </div>
 </foreignObject>
 <rect fill="none" height="160" pointer-events="all" rx="24" ry="24" stroke="#ff907e" stroke-dasharray="6 6" stroke-width="2" width="520" x="1" y="1"/>
 <circle cx="663" cy="156" fill="#FFF" pointer-events="all" r="5" stroke="gray"/>
 <path d="M731 126v89.97" fill="none" pointer-events="stroke" stroke="gray" stroke-dasharray="6 6" stroke-miterlimit="10" stroke-width="2"/>
 <circle cx="726" cy="126" fill="#FFF" pointer-events="all" r="5" stroke="gray"/>
</svg>
